X: 1
T: McFadden's Handsome Daughter
R: reel
M: 4/4
L: 1/8
K: Amaj
~E3F ABcA|~B3c ecAF|~E3F A2af|1ecBd cBAF:|2ecBd cAA2||
aece faaf|edcA BAF2|~a3e faaf|edcB A2ce|
aece aecA|B2cA BAF2|agfe f2af|edcB ABcd||
~e3f ecac|ecac fB~B2|ce~e2 ceaf|ecBd cAA2|
ce~e2 ceae|ceae fBB2|cefg agaf|eAce aecA|


Tune 1581	Setting 14990

